svgs/sharp-light/envelope-open.svg

<svg xmlns="http://www.w3.org/2000/svg" viewBox="0 0 512 512"><!--! Font Awesome Pro 6.6.0 by @fontawesome - https://fontawesome.com License - https://fontawesome.com/license (Commercial License) Copyright 2024 Fonticons, Inc. --><path d="M32 223.2l224 154 224-154 0-15.2L256 40 32 208l0 15.2zM480 262L256 416 32 262l0 218 448 0 0-218zM0 192L256 0 512 192l0 48 0 240 0 32-32 0L32 512 0 512l0-32L0 240l0-48z"/></svg>

<svg xmlns="http://www.w3.org/2000/svg" viewBox="0 0 512 512"><!--! Font Awesome Pro 6.5.2 by @fontawesome - https://fontawesome.com License - https://fontawesome.com/license (Commercial License) Copyright 2024 Fonticons, Inc. --><path d="M32 223.2l224 154 224-154V208L256 40 32 208v15.2zM480 262L256 416 32 262V480H480V262zM0 192L256 0 512 192v48V480v32H480 32 0V480 240 192z"/></svg>
